!!!OTL: 271. Der boese Bach.
!!!ARE: Europa, Mitteleuropa, Deutschland
!!!SCT: B0271
!!!TXL: @@DE
!!!YEM: Copyright 1995, estate of Helmut Schaffrath.
**kern	**text
*ICvox	*
*Ivox	*
*clefG2	*
*M6/8	*
*k[]	*
*a:	*
!LO:TX:a:t=Mäßig.	!
{8e	Du
=1	=1
8a	Bach
8a	mit
8b	den
8.cc	ſil-
16b	-ber-
8cc	-nen
=2	=2
(<4a	Wel-
8cc)	.
4b}	-len,
{8cc	wie
=3	=3
8.a	rin-
16b	-neſt
8cc	du
8dd	heu-
8cc	-te
8b	ſo
=4	=4
(>4.a	hin
4g#)}	,
{8b	als
=5	=5
8cc	hät-
8cc	-teſt
8cc	du
8dd	nie
8dd	noch
8dd	auf
=6	=6
4.ee	Er-
4dd}	-den,
{8dd	nie
=7	=7
8.cc	Bö-
16b	-ſes
8a	ge-
4b	-habt
8e	im
=8	=8
4.a	Sinn.
4r}	.
==	==
!!!AGN: Stimmungs - Lied, Trauer, Klage
!!!GTL: Trauerlieder (Elegien) und Stimmungslieder
!!!ONB: ESAC (Essen Associative Code) Database: BOEHME
!!!AMT: compound duple
!!!AIN: vox
!!!EED: Helmut Schaffrath
!!!EEV: 1.0
!!!RDF**kern: < = below
!!!RDF**kern: > = above
!!Volksweiſe im 18. Jahrh. : "Es waren ʒwei Königskinder".
!!@@COMMENT:"Aus "Liederbuch des deutſchen Volkes". Leipʒig 1883. Nr. 369. Kein Volkslied."
!!@@END:
!!!URL-scan: https://archive.org/details/BoehmeVtLieder1895/page/n233/mode/2up
!!!ENC: Anna Maria Matuszewska
!!!EEV: 2024/03/07
*-	*-
